X:296
T: Trinklied
N: A0340
O: Europa, Mitteleuropa, Deutschland
N: Scandello 1567 No. 20.
R: Romanze, Ballade, Lied, Trinklied
M: 4/2
L: 1/2
K: C
G, | CCDD | E2C2
G2 | AG2GGG | G2E2
A2 | G2FED2 | C4
G2E2A2 | GFGED2 | C4
G2E2A2 | GFGED2 | C3

